X:1
T:All The Way To Galway (The Kerry Cow)
L:1/8
Q:1/4=110
M:2/4
K:D
|:"D" A/ z B/ AG |"D" FA d2 |"G" G>A GF |"A" EF G/F/E |
[K:D]"D" A>B AG |"D" FA de/d/ |"G" cA"A" GE |"D" D2 D2 ::
[K:D]"D" d>e fd |"A" cA A>d |"G" BGGA/B/ |"A" cA A2 |
"D" d>e fd |"A" cA Ad |"G" BG"A" AF |"D" D2 D2 ::